spanish-republican.svg

<svg xmlns="http://www.w3.org/2000/svg" width="292" height="212" viewBox="0 0 292 212"><path fill="#ff2600" d="m0 70V39v-4-4C0 13.879 13.879.0 31 0h230c17.121.0 31 13.879 31 31v4 4 31h-31H31z"/><path fill="#7b1979" d="m0 142v31 4 4c0 17.121 13.879 31 31 31h230c17.121.0 31-13.879 31-31v-4-4-31h-31H31z"/><path fill="#fffb00" d="m0 142h292V70H0z"/><path fill="#ff2600" d="m146 71-8.994 26.28-28.097.323 22.539 16.565-8.372 26.479L146 124.605l22.924 16.042-8.372-26.479 22.539-16.565-28.097-.323z"/></svg>

<?xml version="1.0" encoding="UTF-8"?>
<svg width="292px" height="212px" viewBox="0 0 292 212" xmlns="http://www.w3.org/2000/svg" xmlns:xlink="http://www.w3.org/1999/xlink" version="1.1">
 <!-- Generated by Pixelmator Pro 2.0.5 -->
 <path id="Rounded-Rectangle" d="M0 70 L0 39 0 35 0 31 C0 13.879 13.879 0 31 0 L261 0 C278.121 0 292 13.879 292 31 L292 35 292 39 292 70 261 70 31 70 0 70 Z" fill="#ff2600" fill-opacity="1" stroke="none"/>
 <path id="Rounded-Rectangle-copy" d="M0 142 L0 173 0 177 0 181 C0 198.121 13.879 212 31 212 L261 212 C278.121 212 292 198.121 292 181 L292 177 292 173 292 142 261 142 31 142 0 142 Z" fill="#7b1979" fill-opacity="1" stroke="none"/>
 <path id="Rectangle" d="M0 142 L292 142 292 70 0 70 Z" fill="#fffb00" fill-opacity="1" stroke="none"/>
 <path id="Star" d="M146 71 L137.006 97.28 108.909 97.603 131.448 114.168 123.076 140.647 146 124.605 168.924 140.647 160.552 114.168 183.091 97.603 154.994 97.28 Z" fill="#ff2600" fill-opacity="1" stroke="none"/>
</svg>
